X:1
T:189 - Graça Inefável
T:Letra: Arthur Tappan Pierson (1837-1911)
T:Trad.: Salomão Luiz Ginsburg (1867-1927)
T:Música: James McGranahan (1840-1907)
M:2/2
L:1/4
Q:1/2=90
K:G
V:1
D | "G"G>A Bc | (d2 B)G | "D7"BA GF | "G"G2zG | "D"FG AB | "D7"c3B | "D/A"Ad "A7"d^c | "D"d2z || d | "C"e>^d ec | "G"d>^c dB | "D7"c>B cA | "G"BG "D"AD | ("G"G>A B)"(D7)"c | "G"d3"(Am)"c | "G/D"B2"D7"A2 | "G"G3 |]
w: 1.~A gra-ça do Se-nhor_ meu co-ra-ção ven-ceu, Pois, pa-ra me sal-var, seu Fi-lhoa-ma-do deu. Oh, sim, qual-quer queem Cris-to crer Per-dão e-ter-no vai ob-ter E vi__da no-va re-ce-ber.
w: 2.~A-que-le que pe-car,_ a mor-te so-fre-rá; Quem a-cei-tar Je-sus, a vi-daal-can-ça-rá.  
w: 3.~Seu san-gue der-ra-mou_ a fim de nos sal-var, E da con-de-na-ção nos vei-oas-sim li-vrar.  
w: 4.~Oh, vin-de re-ce-ber_ a vi-dae seu per-dão, E jun-tos pos-suir Je-susea sal-va-ção!          				                    
W: 
W: 
W: 
W: 1. A graça do Senhor meu coração venceu,
W: Pois, para me salvar, seu Filho amado deu.
W: 
W:    (Estribilho)
W:    Oh, sim, qualquer que em Cristo crer
W:    Perdão eterno vai obter                     
W:    E vida nova receber.
W: 
W: 2. Aquele que pecar, a morte sofrerá;
W: Quem aceitar Jesus, a vida alcançará.
W: 
W:
W:
W:
W: 3. Seu sangue derramou a fim de nos salvar,
W: E da condenação nos veio assim livrar.
W: 
W: 4. Oh, vinde receber a vida e seu perdão,
W: E juntos possuir Jesus e a salvação!
W:         
W: 				         
W:  





